X: 1
T: Gan Ainm
M: 4/4
L: 1/8
R: reel
K: Ador
e3d cAAB|c2Ac BAG2|e3d ^cdef|g3e dBGB:|
c2gc acgc|c2ge dcAB|c2gc acgc|1gage d2AB:|2gage d2cd||
